X: 294
T: Tong yangxi
%%abc-version 2.0
%%abcx-abcm2ps-target-version 5.9.1 (29 Sep 2008)
%%abc-creator hum2abc beta
%%abcx-conversion-date 2013/10/02 07:52:29
%%abc-edited-by Helmut Schaffrath
%%humdrum-veritas 1542205116
%%humdrum-veritas-data 22991084
%%continueall 1
%%barnumbers 0
L: 1/8
M: 2/4
K: A
B2B2 [I:setbarnb 1]| 
B2e2 | 
d2c e | 
B4 | 
c2c2 | 
B2c B | 
A2G F | 
E2z2 | 
B3A | 
B3c | 
e A G F | 
E3B | 
A2G F | 
E F E B, | 
E2z2 |]  



